X: 1
T: The Burnt Old Man
R: jig
M: 6/8
L: 1/8
K: Dmaj
DFB AFD|~F3 F2E|DFB AFD|~E3 E2F|
DFB AFD|F2A d2e|fed B2d|ABA F2E:|
~d3 def|ABA AFA|~e3 ede|fed B2A|
~d3 def|ABA d2e|fed B2d|ABA F2E:|


Tune 1029	Setting 14252

